!!!COM: Bach, Johann Sebastian
!!!OPR: Die Kunst der Fuge
!!!XEN: The Art of Fugue
!!!OTL:
!!!OMV: 2
!!!SCT: BWV 1080
!!!SCA: Thematisch-systematisches Verzeichnis der musikalischen Werke Johann Sebastian Bach: Bach-Werke-Verzeichnis (Schmieder)
!!!YOR: Bach Gesellschaft Edition xxv,1
!!!EED: Frances Bennion
!!!ENC: Frances Bennion
!!!CDT: 1685/3//-1750/7/28/
!!!OCY: Deutschland
!!!YEC: Copyright (c) 1994, 2000 Center for Computer Assisted Research in the Humanities
!!!YEM: Rights to all derivative editions reserved.
!!!YEM: Refer to licensing agreement for further details.
!!!YEN: United States of America
**kern	**kern	**kern	**kern
*k[b-]	*k[b-]	*k[b-]	*k[b-]
*d:	*d:	*d:	*d:
*clefG	*clefG	*clefC	*clefC
*M2/2	*M2/2	*M2/2	*M2/2
=1	=1	=1	=1
1r	1r	1r	2D
.	.	.	2A
=2	=2	=2	=2
1r	1r	1r	2F
.	.	.	2D
=3	=3	=3	=3
1r	1r	1r	2C#
.	.	.	4D
.	.	.	4E
=4	=4	=4	=4
1r	1r	1r	[2F
.	.	.	8.F]
.	.	.	16G
.	.	.	8.F
.	.	.	16E
=5	=5	=5	=5
1r	1r	2A	8.D
.	.	.	16E
.	.	.	8.D
.	.	.	4C
.	.	2d	.
.	.	.	16D
.	.	.	8.C
.	.	.	[16BB
=6	=6	=6	=6
1r	1r	2c	8.BB]
.	.	.	16AA
.	.	.	8.BB
.	.	.	16C
.	.	2A	8.D
.	.	.	16E
.	.	.	8.F
.	.	.	16D
=7	=7	=7	=7
1r	1r	2G#	8.E
.	.	.	16F
.	.	.	8.E
.	.	.	16D
.	.	4A	8.C
.	.	.	16BB
.	.	4B	8.AA
.	.	.	16GG#
=8	=8	=8	=8
1r	1r	[2c	8.AA
.	.	.	16A
.	.	.	8.G#
.	.	.	16A
.	.	8.c]	4D
.	.	16d	.
.	.	8.c	[4G
.	.	16B-	.
=9	=9	=9	=9
1r	2d	[2A	8.G]
.	.	.	16F
.	.	.	8.E
.	.	.	16D
.	2a	8.A]	2C#
.	.	16g	.
.	.	8.f	.
.	.	16e	.
=10	=10	=10	=10
1r	2f	8.d	4D
.	.	16c	.
.	.	8.B-	4DD
.	.	16A	.
.	2d	8.B-	8.GG
.	.	16A	16AA
.	.	8.G	[4BB-
.	.	16F	.
=11	=11	=11	=11
1r	2c#	2E	8.BB-]
.	.	.	16BB-
.	.	.	8.AA
.	.	.	16GG
.	4d	8.r	4FF
.	.	16A	.
.	4e	8.B	4EE
.	.	16c#	.
=12	=12	=12	=12
1r	[2f	2.d	8.DD
.	.	.	16D
.	.	.	8.E
.	.	.	16F
.	8.f]	.	8.G
.	16g	.	16B-
.	8.f	4c#	8.A
.	16e	.	16G
=13	=13	=13	=13
2a	8.d	4.d	8.F
.	16e	.	16G
.	8.f	.	8.F
.	.	16r	.
.	16g	16e	16E
2dd	[2a	2f	8.D
.	.	.	16E
.	.	.	8.F
.	.	.	16G
=14	=14	=14	=14
2cc	8.a]	4e	2A
.	16g	.	.
.	8.f	2c	.
.	4e	.	.
2a	.	.	[2F
.	16f	.	.
.	8.e	4A	.
.	[16d	.	.
=15	=15	=15	=15
2g#	8.d]	2B	8.F]
.	16d	.	16F
.	8.e	.	8.E
.	16f	.	16D
4a	4e	8.r	4C
.	.	16E	.
4b	4d	8.F#	4BB
.	.	16G#	.
=16	=16	=16	=16
[2cc	4c	2.A	8.r
.	.	.	16AA
.	4e	.	8.BB
.	.	.	16C
8.cc]	4f	.	4D
16dd	.	.	.
8.cc	[4e	4G#	4E
16b	.	.	.
=17	=17	=17	=17
[1a	8.e]	4A	[2F
.	16c#	.	.
.	8.d	8.B	.
.	16e	16c#	.
.	4f	4d	8.F]
.	.	.	16E
.	[4e	[4G	8.D
.	.	.	16C#
=18	=18	=18	=18
1a]	8.e]	8.G]	[2D
.	16e	16G	.
.	8.d	8.F	.
.	16c#	16E	.
.	4d	4F	8.D]
.	.	.	16C
.	[4c	[4F#	8.BB-
.	.	.	16AA
=19	=19	=19	=19
[1d	4c]	8.F#]	[2BB-
.	.	16D	.
.	8.B-	8.E	.
.	16A	16F#	.
.	4B-	4G	8.BB-]
.	.	.	16AA
.	[4A	[4C	8.GG
.	.	.	16FF#
=20	=20	=20	=20
1d_	8.A]	8.C]	[2..GG
.	16F#	16AA	.
.	8.G	8.BB-	.
.	16A	16C	.
.	4B-	8.D	.
.	.	16C#	.
.	4A	4D	.
.	.	.	16GG]
.	.	.	16FF
=21	=21	=21	=21
8.d]	4G#	4E	[1EE
16c#	.	.	.
8.d	2.r	2.r	.
16f	.	.	.
8.e	.	.	.
16d	.	.	.
8.g#	.	.	.
16a	.	.	.
=22	=22	=22	=22
8.b	2r	2r	2EE]
16cc	.	.	.
8.dd	.	.	.
4f	.	.	.
.	2B	2G#	2E
32e	.	.	.
32d	.	.	.
8.c#	.	.	.
16d	.	.	.
=23	=23	=23	=23
4c#	8.A	4E	4AA
.	16e	.	.
2.r	8.f	4..r	2.r
.	16g	.	.
.	2a	.	.
.	.	16A	.
.	.	8.B	.
.	.	16c#	.
=24	=24	=24	=24
1r	2f	4d	8.r
.	.	.	16D
.	.	2c	8.E
.	.	.	16F
.	2d	.	8.G
.	.	.	16A
.	.	[4B-	8.G
.	.	.	16F
=25	=25	=25	=25
1r	2c#	8.B-]	8.E
.	.	16G	16B-
.	.	8.F	8.A
.	.	16E	16G
.	4d	[2A	8.F
.	.	.	16E
.	4e	.	8.D
.	.	.	16C#
=26	=26	=26	=26
2a	[2f	8.A]	4D
.	.	16d	.
.	.	8.c#	4F
.	.	16d	.
2dd	8.f]	4G#	4BB
.	16a	.	.
.	8.g#	[4B	4E
.	16f#	.	.
=27	=27	=27	=27
2cc	[2e	8.B]	2AA
.	.	16E	.
.	.	8.A	.
.	.	16G	.
2a	8.e]	[2F	[2D
.	16A	.	.
.	8.d	.	.
.	16c	.	.
=28	=28	=28	=28
2g#	2B	4F]	8.D]
.	.	.	16BB
.	.	4E	8.E
.	.	.	16D
4a	8.r	2r	4C
.	16e	.	.
4b	8.f#	.	4BB
.	16g#	.	.
=29	=29	=29	=29
[2cc	2.a	8.r	4AA
.	.	16g	.
.	.	8.f	2.r
.	.	16e	.
8.cc]	.	4d#	.
16dd	.	.	.
8.cc	4g#	4e	.
16b	.	.	.
=30	=30	=30	=30
4cc	8.a	2A	1r
.	16g	.	.
4..aa	8.f	.	.
.	16e	.	.
.	4d	4B	.
16gg	.	.	.
8.ff	4g	4c#	.
[16ee	.	.	.
=31	=31	=31	=31
8.ee]	2f	2d	2D
16ff	.	.	.
8.ee	.	.	.
4dd	.	.	.
.	2e	2r	2A
16ee	.	.	.
8.dd	.	.	.
16cc#	.	.	.
=32	=32	=32	=32
2dd	2d	8.r	2F
.	.	16A	.
.	.	8.B	.
.	.	16c#	.
2r	2r	8.d	2D
.	.	16e	.
.	.	8.f	.
.	.	16d	.
=33	=33	=33	=33
1r	8.r	4e	2C#
.	16b-	.	.
.	8.a	4E	.
.	16g	.	.
.	8.f	4F	4D
.	16e	.	.
.	8.d	4G	4E
.	16c#	.	.
=34	=34	=34	=34
8.r	4d	4A	[2F
16aa	.	.	.
8.gg#	4dd	2.r	.
16aa	.	.	.
4dd	4b	.	8.F]
.	.	.	16G
[4gg	4cc#	.	8.F
.	.	.	16E
=35	=35	=35	=35
8.gg]	4dd	4r	4D
16ff	.	.	.
8.ee	2r	4..d	2.r
16dd	.	.	.
4ee	.	.	.
.	.	16c	.
4aa	[4cc	8.B-	.
.	.	16A	.
=36	=36	=36	=36
4dd	8.cc]	4B-	4r
.	16b-	.	.
4ee	8.a	4B	4..G
.	16g	.	.
4e	2a	4c#	.
.	.	.	16F
4f	.	[4d	8.E
.	.	.	16D
=37	=37	=37	=37
4e	4g#	8.d]	2E
.	.	16c	.
4..ee	4cc	8.B	.
.	.	16A	.
.	4f#	4B	2r
16dd	.	.	.
8.cc	4g#	4e	.
16b	.	.	.
=38	=38	=38	=38
8.cc	8.a	2A	1r
16dd	16b-	.	.
4..ee	8.a	.	.
.	16g	.	.
.	8.f	2d	.
16ff	16a	.	.
8.ee	8.g	.	.
16dd	[16f	.	.
=39	=39	=39	=39
4aa	8.f]	2c	1r
.	16e	.	.
2.r	8.f#	.	.
.	16g#	.	.
.	8.a	2A	.
.	16b	.	.
.	8.cc	.	.
.	16a	.	.
=40	=40	=40	=40
1r	[2b	2G#	8.r
.	.	.	16F
.	.	.	8.E
.	.	.	16D
.	8.b]	4A	4C
.	16a	.	.
.	8.g#	4B	[4F
.	16a	.	.
=41	=41	=41	=41
8.r	8.d#	[2c	4F]
16ee	16A	.	.
8.dd#	2a	.	2F#
16ee	.	.	.
4a	.	8.c]	.
.	.	16d	.
[4dd	[4e	8.c	4G#
.	.	16B	.
=42	=42	=42	=42
8.dd]	4e]	[2A	2A
16cc	.	.	.
8.b-	4f	.	.
16a	.	.	.
[2b-	4d	8.A]	2r
.	.	16G	.
.	4g	8.F	.
.	.	16E	.
=43	=43	=43	=43
8.b-]	8.c	4F	1r
16a	16f	.	.
8.g	8.e	4B-	.
16f	4d	.	.
[2g	.	4E	.
.	16e	.	.
.	8.d	4A	.
.	16c#	.	.
=44	=44	=44	=44
8.g]	2.d	4D	1r
16f	.	.	.
8.g	.	8.E	.
16a	.	16F	.
8.b-	.	8.G	.
16cc	.	16A	.
8.dd	4g	[4B-	.
16ee	.	.	.
=45	=45	=45	=45
2ff	[2c	8.B-]	1r
.	.	16A	.
.	.	8.G	.
.	.	16F	.
2ccc	8.c]	2E	.
.	16B-	.	.
.	8.A	.	.
.	16G	.	.
=46	=46	=46	=46
2aa	8.F	4F	1r
.	16f	.	.
.	8.g	2r	.
.	16a	.	.
2ff	8.b-	.	.
.	16cc	.	.
.	8.dd	[4B-	.
.	16b-	.	.
=47	=47	=47	=47
2ee	4cc	8.B-]	1r
.	.	16d	.
.	4g	8.c	.
.	.	16B-	.
4ff	[2cc	8.A	.
.	.	16G	.
4gg	.	8.F	.
.	.	16E	.
=48	=48	=48	=48
[2aa	2cc]	8.F	1r
.	.	16f	.
.	.	8.e	.
.	.	16f	.
8.aa]	4dd	4B-	.
16bb-	.	.	.
8.aa	8.cc	[4e-	.
16gg	16b-	.	.
=49	=49	=49	=49
2ff#	2a	8.e-]	1r
.	.	16e-	.
.	.	8.d	.
.	.	16c	.
4gg	2dd	8.B-	.
.	.	16A	.
[4aa	.	8.G	.
.	.	16F#	.
=50	=50	=50	=50
8.aa]	2b-	8.G	1r
16dd	.	16A	.
8.gg	.	2B-	.
16ff	.	.	.
8.ee-	2g	.	.
16dd	.	.	.
8.cc	.	8.A	.
16b-	.	16B-	.
=51	=51	=51	=51
2a	2f#	4c	8.r
.	.	.	16E-
.	.	4e-	8.D
.	.	.	16C
2r	4g	[2d	8.BB-
.	.	.	16AA
.	4a	.	8.GG
.	.	.	16FF#
=52	=52	=52	=52
1r	[2b-	4d]	8.GG
.	.	.	16G
.	.	4d	8.F#
.	.	.	16G
.	8.b-]	4e	[2C
.	16cc	.	.
.	8.b-	[4f	.
.	16a	.	.
=53	=53	=53	=53
1r	4g	8.f]	2C]
.	.	16f	.
.	4b-	8.e-	.
.	.	16d	.
.	4a	8.c	2F
.	.	16B-	.
.	[4cc	8.A	.
.	.	16G	.
=54	=54	=54	=54
1r	8.cc]	4F	2D
.	16f	.	.
.	8.g	2.r	.
.	16a	.	.
.	8.b-	.	2BB-
.	16cc	.	.
.	8.dd	.	.
.	16b-	.	.
=55	=55	=55	=55
8.r	2cc	4r	2AA
16gg	.	.	.
8.ff	.	4C	.
16ee-	.	.	.
8.dd	[2f	4D	4BB-
16cc	.	.	.
8.b-	.	4E-	4C
16a	.	.	.
=56	=56	=56	=56
2b-	8.f]	4F	[2D
.	16a-	.	.
.	8.g	2B-	.
.	16f	.	.
[2ee-	4g	.	8.D]
.	.	.	16E-
.	4a	4e-	8.D
.	.	.	16C
=57	=57	=57	=57
8.ee-]	2b-	2f	8.BB-
16dd	.	.	16B-
8.cc#	.	.	8.A
16dd	.	.	16B-
4g	2r	8.r	4E
.	.	16c	.
[4cc	.	8.B-	4F#
.	.	16A	.
=58	=58	=58	=58
4cc]	8.r	4G	[2G
.	16g	.	.
4b-	8.f#	4e-	.
.	16g	.	.
[2a	4e	4c#	8.G]
.	.	.	16F
.	[4f	[4d	8.E
.	.	.	16D
=59	=59	=59	=59
8.a]	8.f]	8d]	1B-
.	.	2..r	.
16ff	16d	.	.
8.gg	8.c#	.	.
16ff	16d	.	.
8.ee	[2g	.	.
16dd	.	.	.
8.cc#	.	.	.
16dd	.	.	.
=60	=60	=60	=60
8.cc#	4g]	4r	4A
16aa	.	.	.
8.bb-	4f	2d	2.r
16aa	.	.	.
8.gg	4e	.	.
16ff	.	.	.
8.ee	[4a	4c#	.
16ff	.	.	.
=61	=61	=61	=61
8.gg	4a]	2d	2D
16ff	.	.	.
8.ee	2.r	.	.
4dd	.	.	.
.	.	2e	2A
16ee	.	.	.
8.dd	.	.	.
16cc#	.	.	.
=62	=62	=62	=62
4dd	8.r	4A	2F
.	16b-	.	.
2r	8.a	8.B	.
.	4g	16c#	.
.	.	4d	2D
.	16a	.	.
[4b-	8.g	4r	.
.	16f	.	.
=63	=63	=63	=63
8.b-]	4e	4r	2C#
16b-	.	.	.
8.a	4A	4E	.
16g	.	.	.
8.f	2B-	4F	4D
16e	.	.	.
8.d	.	4G	4E
16c#	.	.	.
=64	=64	=64	=64
8.d	4A	2A	[2F
16dd	.	.	.
8.ee	4a	.	.
16ff	.	.	.
[2gg	4b	2r	8.F]
.	.	.	16G
.	4cc#	.	8.F
.	.	.	16E
=65	=65	=65	=65
4gg]	4dd	8.r	[2D
.	.	16A	.
8.ff	2.r	8.B	.
16ee	.	16c#	.
4ff	.	4d	8.D]
.	.	.	16E-
4aa	.	4F#	8.D
.	.	.	16C
=66	=66	=66	=66
2dd	8.r	4G	[2BB-
.	16g	.	.
.	8.a	2.r	.
.	16b-	.	.
4ee	[2cc	.	8.BB-]
.	.	.	16C
4ff#	.	.	8.BB-
.	.	.	16AA
=67	=67	=67	=67
2.gg	4cc]	1r	8.GG
.	.	.	16D
.	8.b-	.	8.E
.	16a	.	16F#
.	4b-	.	8.G
.	.	.	16A
[4dd	4a	.	8.G
.	.	.	16F
=68	=68	=68	=68
8.dd]	2g	1r	4E
16ee	.	.	.
8.dd	.	.	4A
4cc	.	.	.
.	2f	.	4D
16dd	.	.	.
8.cc	.	.	4G
[16b-	.	.	.
=69	=69	=69	=69
8.b-]	2e	4r	2C#
16b-	.	.	.
8.a	.	2A	.
16g	.	.	.
8.f	4d	.	2D
16cc	.	.	.
8.b-	[4f	[4d	.
16a	.	.	.
=70	=70	=70	=70
4.g#	8.f]	4d]	2E
.	16f	.	.
.	4..e	2c	.
16r	.	.	.
16g#	.	.	.
4.a	.	.	2F
.	16e	.	.
.	4d	[4A	.
16r	.	.	.
16a	.	.	.
=71	=71	=71	=71
8.dd	4..r	4A]	2BB
16ee	.	.	.
4ff	.	4G#	.
.	16dd	.	.
[2ee	8.cc	4A	[2C
.	16b	.	.
.	8.a	4B	.
.	16g#	.	.
=72	=72	=72	=72
8.ee]	2a	[2c	4C]
16aa	.	.	.
8.gg#	.	.	4D
16aa	.	.	.
8.ee	4r	8.c]	2E
16ff#	.	16d	.
[4gg	[4ee	8.c#	.
.	.	16B	.
=73	=73	=73	=73
4gg]	8.ee]	2A	4F
.	16a	.	.
2ff	8.dd	.	4D
.	16cc	.	.
.	8.b-	[2B-	[2G
.	16a	.	.
8.ee	8.g	.	.
16dd	16f	.	.
=74	=74	=74	=74
4cc#	[2e	8.B-]	4G]
.	.	16B-	.
4ee	.	8.A	4C#
.	.	16G	.
[2a	8.e]	8.F	4D
.	16g	16E	.
.	8.f	8.D	4AA
.	16e	16C#	.
=75	=75	=75	=75
4a]	8.d	4D	2.BB-
.	16c	.	.
2d	8.B-	8.E	.
.	16A	16F#	.
.	2B-	8.G	.
.	.	16F	.
[4g	.	8.E	4GG
.	.	16D	.
=76	=76	=76	=76
8.g]	2.A	2C#	[1AA
16b-	.	.	.
8.a	.	.	.
4g	.	.	.
.	.	2D	.
16a	.	.	.
8.g	4B	.	.
[16f	.	.	.
=77	=77	=77	=77
8.f]	2c#	2E	1AA_
16g	.	.	.
8.f	.	.	.
4e	.	.	.
.	2G#	2F	.
16f	.	.	.
8.e	.	.	.
[16d	.	.	.
=78	=78	=78	=78
8.d]	2A	2E	2AA_
16B	.	.	.
8.c#	.	.	.
16e	.	.	.
8.A	4r	4r	8.AA]
16g	.	.	16BB-
8.f	4c#	4A	8.AA]
16e	.	.	[16GG
=79	=79	=79	=79
2d	8.d	2A	8.GG]
.	16f	.	16AA
.	8.e	.	8.GG
.	16d	.	4FF
2a	8.c#	2r	.
.	16A	.	16GG
.	8.B	.	8.FF
.	16c#	.	16EE
=80	=80	=80	=80
2f	4d	8.r	4DD
.	.	16D	.
.	2c	8.E	4..r
.	.	16F	.
2d	.	8.G	.
.	.	16A	16EE
.	[4B-	8.G	8.FF
.	.	16F	16GG
=81	=81	=81	=81
2c#	8.B-]	8.E	2AA
.	16B-	16G	.
.	8.A	8.F	.
.	16G	16E	.
4d	4F	2D	8.r
.	.	.	16BB-
4e	4B-	.	8.AA
.	.	.	16GG
=82	=82	=82	=82
[2f	2A	4C#	8.AA
.	.	.	16FF
.	.	2D	8.EE
.	.	.	16DD
8.f]	4B-	.	4GG
16g	.	.	.
8.f	[4A	4C#	4AA
16e	.	.	.
=83	=83	=83	=83
[1d	8.A]	4D	8.BB-
.	16F#	.	16C
.	8.G	8.E	8.BB-
.	16A	16F#	16AA
.	[2B-	[2G	8.GG
.	.	.	16AA
.	.	.	8.BB-
.	.	.	16GG
=84	=84	=84	=84
1d]	8.B-]	8.G]	2D
.	16A	16F#	.
.	8.B-	8.G	.
.	16G	16E	.
.	2A	2F#	2DD
==	==	==	==
*-	*-	*-	*-
!!!RWG1: This file contains only pitch and duration data.
!!!RWG2: Transposing instruments are not transposed.
!!!RWG3: Spines may have incompatible meters.
!!!RWG4: Durations of rests and tied notes may be interpreted.
!!!RWG: Key is interpreted using the Humdrum key tool.
!!!AFT: stage1
!!!END: 1997/04/15/
!!format changes:
!!content changes:
!!public access: complete
!!!KEY: 2585474646
!!!EMD: Converted from MuseData to Humdrum Dec 19, 2000, by Andreas Kornstaedt using muse2kern.
